X: 7440
T: Cloverfield Corner
R: reel
M: 4/4
K: Edorian
EGde- efed|efed B~B2c|dB~B2 AGFA|GBBG AGFG|
EGde- efed|efed B~B2c|dB~B2 AGFA|1 GEED EGED:|2 GEED E2z2||
|:=cdef g~g2e|defg a2zf|ge~e2 deBe|~e2ge fedB|
=cdef g~g2e|defg a2z2|bgeb agfg|1 egfd edBd:|2 egfd edBG|

